!!!COM:	Bach, Johann Sebastian
!!!OMV:	Helft mir Gotts G&uuml;te preisen
!!!OTL:	Helft mir Gotts G&uuml;te preisen
**kern	**fb	**kern	**kern	**kern	**kern
*part5	*part5	*part4	*part3	*part2	*part1
*staff5	*	*staff4	*staff3	*staff2	*staff1
*I"Continuo	*	*I"Voice	*I"Voice	*I"Voice	*I"Voice
*I'Cont.	*	*I'V	*I'V	*I'V	*I'V
*clefF4	*	*clefF4	*clefGv2	*clefG2	*clefG2
*Trd0c0	*	*	*	*	*
*k[]	*	*k[]	*k[]	*k[]	*k[]
*M4/4	*	*M4/4	*M4/4	*M4/4	*M4/4
8AL	.	8AL	4c	4e	4a
8GJ	.	8GJ	.	.	.
=2	=2	=2	=2	=2	=2
4F	.	4F	4c	4f	4a
8EL	.	8EL	4d	4f	4b
8DJ	.	8DJ	.	.	.
4E	.	4E	4G	4g	4cc
4F#X	.	4F#X	4d	4a	4cc
=3	=3	=3	=3	=3	=3
4G	.	4G	4d	2g	4.b
8F#XL	.	8F#XL	4e	.	.
8EJ	.	8EJ	.	.	8cc
4F#;	.	4F#;	4d;	4a;	4dd;
4G#X	.	4G#X	4B	4e	4ee
=4	=4	=4	=4	=4	=4
8AL	.	8AL	8cL	4e	4cc
8BJ	.	8BJ	8dJ	.	.
8cL	.	8cL	4e	4a	4a
8AJ	.	8AJ	.	.	.
4D	.	4D	4fn	4a	4b
4E	.	4E	8eL	4g#X	4b
.	.	.	8dJ	.	.
=	=	=	=	=	=
2.AA;	.	2.AA;	2.c;	2.e;	2.a;
=5:|!	=5:|!	=5:|!	=5:|!	=5:|!	=5:|!
4c	.	4c	8GnL	8eL	4ee
.	.	.	8AJ	8f#XJ	.
=6	=6	=6	=6	=6	=6
4B	.	4B	4B	4g#X	4dd
4A	.	4A	8eL	8aL	4cc
.	.	.	8cJ	8gnJ	.
4G#X	.	4G#X	8dL	4fn	4b
.	.	.	8BJ	.	.
4A	.	4A	4c	8eL	4a
.	.	.	.	8f#XJ	.
=7	=7	=7	=7	=7	=7
!!linebreak:original
2.E;	.	2.E;	2.B;	2.g#X;	2.b;
4E	.	4E	4e	4g#	4b
=8	=8	=8	=8	=8	=8
4A	.	4A	4e	4a	4cc
8GL	7 5 3	8GnL	4f	4b	4dd
8FJ	.	8FJ	.	.	.
4c	.	4c	4g	8ccL	4ee
.	.	.	.	8bJ	.
4E	.	4E	8cL	8aL	4ee
.	.	.	8BJ	8gnJ	.
=9	=9	=9	=9	=9	=9
4F#X	.	4F#X	4A	8aL	2dd
.	.	.	.	8gJ	.
8EL	.	8EL	4d	4f#X	.
8DJ	.	8DJ	.	.	.
4G;	.	4G;	4d;	4g;	4b;
8GL	.	8GL	4d	4g	4b
8FnJ	.	8FnJ	.	.	.
=10	=10	=10	=10	=10	=10
4E	.	4E	4G	4g	4cc
4D	.	4D	4A	8gL	4dd
.	.	.	.	8fnJ	.
4C#X	-r7 5	4C#X	4B-X	8eL	4ee
.	.	.	.	8fJ	.
8DL	9	8DL	8AL	4g	4ee
8EJ	.	8EJ	8GJ	.	.
=11	=11	=11	=11	=11	=11
4F	6	4F	2A	8fL	4.dd
.	.	.	.	8gJ	.
8EL	6 4 2	8EL	.	4a	.
8DJ	.	8DJ	.	.	8cc
4E;	#	4E;	4e;	4g#X;	4b;
4G#X	6	4G#X	4e	4b	4ee
=12	=12	=12	=12	=12	=12
4A	.	4A	4E	4a	8ddL
.	.	.	.	.	8ccJ
4C	.	4C	4A	4e	8bL
.	.	.	.	.	8aJ
4D	.	4D	4A	4f	4b
4E	.	4E	4G#X	8eL	4b
.	.	.	.	8dJ	.
=13	=13	=13	=13	=13	=13
!!pagebreak:original
2.AA;	.	2.AA;	2.E;	2.c#X;	2.a;
=||	=||	=||	=||	=||	=||
*-	*-	*-	*-	*-	*-
!!!system-decoration: s1,s2,s3,s4,s5
